downloads/QuickArt_Wedding_LUT.cube
# Quick Art Photography Academy - Cinematic Indian Wedding Warm Skin LUT
# Created by Anil Sharma for Quick Art Students
TITLE "QuickArt_Wedding_WarmSkin"
LUT_3D_SIZE 4
0.000000 0.000000 0.000000
0.345000 0.312000 0.280000
0.680000 0.635000 0.580000
1.000000 0.960000 0.910000
0.000000 0.320000 0.000000
0.345000 0.640000 0.280000
0.680000 0.950000 0.580000
1.000000 1.000000 0.910000
0.000000 0.000000 0.310000
0.345000 0.312000 0.620000
0.680000 0.635000 0.930000
1.000000 0.960000 1.000000
0.000000 0.320000 0.310000
0.345000 0.640000 0.620000
0.680000 0.950000 0.930000
1.000000 1.000000 1.000000
0.330000 0.000000 0.000000
0.660000 0.312000 0.280000
0.980000 0.635000 0.580000
1.000000 0.960000 0.910000
0.330000 0.320000 0.000000
0.660000 0.640000 0.280000
0.980000 0.950000 0.580000
1.000000 1.000000 0.910000
0.330000 0.000000 0.310000
0.660000 0.312000 0.620000
0.980000 0.635000 0.930000
1.000000 0.960000 1.000000
0.330000 0.320000 0.310000
0.660000 0.640000 0.620000
0.980000 0.950000 0.930000
1.000000 1.000000 1.000000
0.650000 0.000000 0.000000
0.960000 0.312000 0.280000
1.000000 0.635000 0.580000
1.000000 0.960000 0.910000
0.650000 0.320000 0.000000
0.960000 0.640000 0.280000
1.000000 0.950000 0.580000
1.000000 1.000000 0.910000
0.650000 0.000000 0.310000
0.960000 0.312000 0.620000
1.000000 0.635000 0.930000
1.000000 0.960000 1.000000
0.650000 0.320000 0.310000
0.960000 0.640000 0.620000
1.000000 0.950000 0.930000
1.000000 1.000000 1.000000
0.950000 0.000000 0.000000
1.000000 0.312000 0.280000
1.000000 0.635000 0.580000
1.000000 0.960000 0.910000
0.950000 0.320000 0.000000
1.000000 0.640000 0.280000
1.000000 0.950000 0.580000
1.000000 1.000000 0.910000
0.950000 0.000000 0.310000
1.000000 0.312000 0.620000
1.000000 0.635000 0.930000
1.000000 0.960000 1.000000
0.950000 0.320000 0.310000
1.000000 0.640000 0.620000
1.000000 0.950000 0.930000
1.000000 1.000000 1.000000
